X: 07061
T: JACQUI'S JIG
C: Bob McQuillen 16 June 89
B: Bob's Note Book 7 #61
%R: jig
Z: 2020 John Chambers <jc:trillian.mit.edu>
M: 6/8
L: 1/8
K: G
B2A \
| GBe dBG | A2c E2G | FAF DEF | GBe dBA |\
| GBe dBG | A2c E2G | FAF DEF | G3 :|
K: D
|: A2G \
| FAd dfd | e2d B2d | cBA GAB | BAF DFA |\
| FAd dfa | b2g e2d | cba gfe | d3 :|
%%begintext align
%% Jacqui (pr. "Jacky") Wolley found
%% and returned my favorite (missing) hat to me one time
%% at Augusta, and I've been grateful to her ever since. Thanks
%% ever so much Jacqui - I hope this tune pays you back!
%%endtext
